packages/components/src/components/icon/cashier/ic-cashier-help-to-pay-dark.svg

<svg width="40" height="25" viewBox="0 0 40 25" fill="none" xmlns="http://www.w3.org/2000/svg">
<path d="M32.1294 15.3039L30.4002 19.8666C30.2663 20.2374 30.0462 20.571 29.7579 20.8399C29.4809 21.0976 29.1184 21.2437 28.7401 21.25H28.6191L28.293 21.2228V20.1408L28.5054 20.1606L28.6709 20.1705H28.7228C28.7814 20.1705 28.8393 20.1587 28.8933 20.1359C28.9562 20.108 29.0138 20.0696 29.0637 20.0222C29.2029 19.8813 29.3113 19.713 29.3824 19.5282L29.4046 19.4713L27.5988 15.3088H28.7648L29.958 18.0262L30.9857 15.3088H31.628L32.1294 15.3039ZM26.8182 15.5929C27.1606 15.9236 27.3411 16.3875 27.3122 16.8626V19.5059H26.4254V19.0119H26.3859C26.2535 19.2024 26.0773 19.3583 25.872 19.4664C25.6382 19.5912 25.3762 19.6542 25.1112 19.6492C24.8301 19.651 24.5525 19.5867 24.3009 19.4615C24.0734 19.3524 23.8815 19.1811 23.7475 18.9674C23.6136 18.7437 23.5451 18.4869 23.5499 18.2263C23.5355 17.8219 23.7201 17.4362 24.044 17.1937C24.4014 16.932 24.8364 16.798 25.2791 16.8132C25.505 16.8104 25.7305 16.8336 25.9511 16.8824C26.1122 16.9178 26.2695 16.9691 26.4204 17.0356V16.8207C26.4273 16.5764 26.3206 16.3428 26.1314 16.1882C25.9225 16.0187 25.6591 15.931 25.3903 15.9412C25.1795 15.9403 24.9715 15.9885 24.7826 16.082C24.6016 16.1664 24.4445 16.2946 24.3256 16.455L23.6907 15.961C23.8782 15.7021 24.128 15.4948 24.417 15.3582C24.7259 15.2129 25.0637 15.1394 25.4051 15.1433C25.9159 15.1104 26.4203 15.2709 26.8182 15.5929ZM23.7179 9.07856C24.2946 9.08804 24.8353 9.3611 25.1853 9.81966L25.1902 9.83202C26.0005 10.9425 26.0005 12.4493 25.1902 13.5598C24.8403 14.0183 24.2996 14.2914 23.7228 14.3009C23.2261 14.3003 22.7537 14.0861 22.4259 13.7129V19.5232H21.2203V9.17243H22.4259V9.6665C22.7526 9.29465 23.2229 9.0806 23.7179 9.07856ZM24.711 17.6902C24.5514 17.8167 24.46 18.0104 24.4639 18.2139C24.459 18.3995 24.5424 18.5764 24.6887 18.6907C24.853 18.8197 25.0581 18.8855 25.2668 18.876C25.4759 18.8826 25.6828 18.8313 25.8646 18.7278V18.7204C26.0371 18.6196 26.1795 18.4746 26.2772 18.3004C26.3753 18.1263 26.4264 17.9296 26.4254 17.7297C26.286 17.6534 26.1374 17.5953 25.9832 17.5568C25.8095 17.5139 25.6309 17.494 25.4521 17.4975C25.1903 17.4751 24.9287 17.5431 24.711 17.6902ZM16.6131 9.37994C16.9786 9.5955 17.2732 9.91321 17.4605 10.294C17.6596 10.7013 17.7595 11.1499 17.752 11.6033C17.7501 11.7191 17.7402 11.8347 17.7223 11.9491H13.871C13.8832 12.3602 14.0614 12.7488 14.3651 13.0262C14.8748 13.463 15.6048 13.5304 16.1858 13.1942C16.4141 13.0523 16.6021 12.854 16.7317 12.6186L17.6482 13.0534C17.4264 13.4507 17.1077 13.7855 16.7218 14.0267C16.3087 14.2728 15.834 14.3962 15.3533 14.3824C14.8901 14.3876 14.4343 14.2672 14.0341 14.0341C13.6472 13.8082 13.33 13.48 13.1176 13.0855C12.8943 12.6652 12.7813 12.1952 12.789 11.7194C12.7831 11.256 12.8899 10.7982 13.1003 10.3854C13.3038 9.98215 13.6118 9.64091 13.9921 9.39723C14.3837 9.15408 14.8381 9.03125 15.2989 9.04397C15.7597 9.03114 16.215 9.14751 16.6131 9.37994ZM19.9333 3.75V14.333H18.6561V3.75H19.9333ZM8.81422 3.91057V8.92787L8.87845 8.88093L8.95087 8.84041C9.2677 8.67117 9.62264 8.5846 9.9827 8.58943L10.0576 8.58887C10.6062 8.59505 11.1296 8.82581 11.5044 9.22925C11.8854 9.68504 12.0835 10.2661 12.0603 10.8597V14.1724H10.8251V11.0474C10.8433 10.7747 10.7607 10.5048 10.5929 10.289C10.5255 10.2102 10.441 10.1476 10.3458 10.1062C10.2176 10.0559 10.0809 10.0308 9.94317 10.0321C9.6416 10.0248 9.35159 10.1482 9.14772 10.3706C8.89882 10.6911 8.77659 11.0921 8.80434 11.497V14.1724H7.58398V3.91057H8.81422ZM23.6166 9.92588C23.0756 9.92836 22.6556 10.6942 22.6556 11.6823C22.6556 12.6705 23.0756 13.4412 23.6166 13.4412C24.1601 13.4387 24.58 12.668 24.58 11.6823C24.58 10.6966 24.1576 9.92342 23.6166 9.92588ZM15.2915 9.97777C14.9738 9.96863 14.6637 10.0758 14.4195 10.2792C14.1733 10.4994 14.0008 10.7901 13.9254 11.1117L16.6502 11.1191C16.6337 10.9334 16.5764 10.7537 16.4822 10.5929C16.3746 10.4092 16.2192 10.2581 16.0326 10.1556C15.8065 10.0297 15.5501 9.96818 15.2915 9.97777Z" fill="white"/>
<path d="M19.5405 16.8281C19.8434 16.8281 20.0889 17.0736 20.0889 17.3765V17.379C20.0889 17.6818 19.8434 17.9274 19.5405 17.9274H8.04842C7.74554 17.9274 7.5 17.6818 7.5 17.379V17.3765C7.5 17.0736 7.74554 16.8281 8.04842 16.8281H19.5405ZM29.3799 4.32807C30.4521 4.32807 31.2162 4.55534 31.6724 5.00988C32.1174 5.43656 32.3652 6.02884 32.3567 6.64526C32.3539 6.99628 32.2808 7.34319 32.1418 7.66551C31.9438 8.08149 31.6551 8.44783 31.2969 8.73765C30.9687 9.0341 30.6248 9.31282 30.2668 9.57263L29.8024 9.88883C28.3449 10.8918 27.6153 11.8676 27.6136 12.8162V13.0484H32.5543V14.0934H26.4155V13.1052C26.4371 12.5159 26.6007 11.9405 26.8923 11.4279C27.2938 10.7282 27.8405 10.1225 28.4956 9.65168L29.1354 9.15761C29.9918 8.49885 30.5361 8.00478 30.7683 7.6754C30.9858 7.37933 31.1051 7.02251 31.1092 6.65514C31.104 6.28216 30.9373 5.92976 30.6522 5.68923C30.2805 5.38727 29.8083 5.23722 29.3305 5.26927C28.919 5.24179 28.5102 5.35313 28.1695 5.58548C27.943 5.74038 27.8028 5.99311 27.7915 6.26729V6.32658H26.6551V6.26482C26.6595 5.91981 26.7786 5.58607 26.9936 5.31621C27.2399 5.0044 27.5588 4.7576 27.9224 4.59733C28.383 4.40285 28.8803 4.31096 29.3799 4.32807Z" fill="#A9C51A"/>
</svg>

<svg width="40" height="25" fill="none" xmlns="http://www.w3.org/2000/svg"><path d="M32.13 15.304l-1.73 4.563c-.134.37-.354.704-.642.973-.277.258-.64.404-1.018.41h-.12l-.327-.027V20.14l.212.02.166.01h.052a.438.438 0 00.17-.035.601.601 0 00.17-.114c.14-.14.248-.309.32-.494l.022-.057-1.806-4.162h1.166l1.193 2.717 1.028-2.717h.642l.501-.005zm-5.312.289c.343.33.523.794.494 1.27v2.643h-.887v-.494h-.04c-.132.19-.308.346-.513.454a1.554 1.554 0 01-.76.183 1.793 1.793 0 01-.811-.188c-.228-.109-.42-.28-.553-.494a1.393 1.393 0 01-.198-.74c-.015-.405.17-.79.494-1.033a1.976 1.976 0 011.235-.38c.226-.004.451.02.672.068.161.036.319.087.47.154v-.215a.788.788 0 00-.29-.633 1.11 1.11 0 00-.74-.247c-.211 0-.42.047-.608.141a1.2 1.2 0 00-.457.373l-.635-.494c.187-.259.437-.466.726-.603a2.26 2.26 0 01.988-.215 2.038 2.038 0 011.413.45zm-3.1-6.514c.577.009 1.117.282 1.467.74l.005.013c.81 1.11.81 2.617 0 3.728-.35.458-.89.731-1.467.74-.497 0-.97-.214-1.297-.587v5.81H21.22V9.173h1.206v.493a1.73 1.73 0 011.292-.587zm.993 8.611a.652.652 0 00-.247.524.585.585 0 00.225.477c.164.129.37.195.578.185.209.007.416-.045.598-.148v-.008a1.15 1.15 0 00.56-.99 1.859 1.859 0 00-.442-.173 2.048 2.048 0 00-.53-.06 1.149 1.149 0 00-.742.193zm-8.098-8.31c.366.215.66.533.848.914.199.407.299.856.291 1.31a2.503 2.503 0 01-.03.345h-3.851c.012.411.19.8.494 1.077.51.437 1.24.504 1.82.168.23-.142.417-.34.547-.575l.916.434a2.7 2.7 0 01-.926.974c-.413.246-.888.37-1.369.355a2.564 2.564 0 01-1.319-.348 2.436 2.436 0 01-.916-.949 2.815 2.815 0 01-.329-1.366c-.006-.463.1-.92.311-1.334.204-.403.512-.744.892-.988a2.354 2.354 0 011.307-.353 2.47 2.47 0 011.314.336zm3.32-5.63v10.583h-1.277V3.75h1.277zm-11.119.16v5.018l.064-.047.073-.04a2.13 2.13 0 011.032-.252h.075a2.006 2.006 0 011.446.64c.381.456.58 1.037.556 1.63v3.313h-1.235v-3.125a1.115 1.115 0 00-.232-.758.685.685 0 00-.247-.183 1.075 1.075 0 00-.403-.074 1.045 1.045 0 00-.795.339c-.25.32-.371.721-.344 1.126v2.675h-1.22V3.911h1.23zm14.803 6.016c-.541.002-.961.768-.961 1.756 0 .989.42 1.76.96 1.76.544-.003.964-.774.964-1.76 0-.985-.422-1.759-.963-1.756zm-8.326.052a1.304 1.304 0 00-.872.301 1.61 1.61 0 00-.494.833l2.725.007a1.262 1.262 0 00-.168-.526 1.179 1.179 0 00-.45-.437 1.416 1.416 0 00-.74-.178z" fill="#fff"/><path d="M19.54 16.828c.303 0 .549.246.549.549v.002a.548.548 0 01-.548.548H8.048a.548.548 0 01-.548-.548v-.003c0-.302.246-.548.548-.548h11.493zm9.84-12.5c1.072 0 1.836.227 2.292.682.445.427.693 1.019.685 1.635a2.63 2.63 0 01-.215 1.02 3.084 3.084 0 01-.845 1.073c-.328.296-.672.575-1.03.835l-.465.316c-1.457 1.003-2.187 1.979-2.188 2.927v.232h4.94v1.045h-6.139v-.988c.022-.59.186-1.165.477-1.677a5.65 5.65 0 011.604-1.776l.64-.494c.856-.66 1.4-1.153 1.632-1.483.218-.296.337-.652.341-1.02a1.287 1.287 0 00-.457-.966 1.895 1.895 0 00-1.322-.42 1.843 1.843 0 00-1.16.316.87.87 0 00-.379.682v.06h-1.136v-.062c.005-.345.124-.679.339-.949.246-.312.565-.558.928-.719.461-.194.958-.286 1.458-.269z" fill="#A9C51A"/></svg>
